X: 244
T: Kalajdzijsko
O: Macedonia
M: 11/8
L: 1/8
Q: 1/4=132
K: Am
%%MIDI drum d2d2d3d2d2 41 35 41 48 48 90 70 80 50 40
%%MIDI drumon
%%MIDI program 40
|:A,2E2E2D E2D2   |C2D2D2C D2C2      |\
  G,2C2 C2B, C2B,2|G,2A,2 A,2G, A,4  :|
|:A,B,CD D2C D2CB,|G,2A,2 A,2G, B,CD2|\
  A,B,CD D2C D2CB,|G,2A,2 A,3 A,4    :|
K:G
%%MIDI program 71
Q: 1/4=144
|:FGEz E2D E2E2   |FGEz E2D FGAG     |\
  FGEz E2D E2E2   |B,CD2 D2C FGD2    :|
%%MIDI program 23
|:DCB,A, TA,3 EE3 |DCB,A, TA,3 A,A,3 :|



